!!!COM: Beethoven
!!!OTL: Acht Variationen uber "Une fievre brulante" aus "Richard Coeur de Lion" von A.E.M. Gretry
!!!Variation: Theme b
**function	**harm	**kern	**kern
*M3/4	*M3/4	*staff2	*staff1
*C:	*C:	*clefF4	*clefG2
*tb4	*	*k[]	*k[]
*	*	*M3/4	*M3/4
*	*	*C:	*C:
=-	=-	=-	=-
4D	4V	4r	4b 4dd
=	=	=	=
2. D	2.V I/V	2.G	2b 2dd
.	.	.	4b 4dd
=	=	=11	=11
2. D	2.vi ii/V	2.A	2e 2a 2cc
.	.	.	4e 4a 4cc
=	=	=12	=12
2.D	2.V/V	4D	2.d [2.f# [2.a
.	.	4F#	.
.	.	4A	.
=	=	=13	=13
2D	2V/V	4d	2f#] 2a]
.	.	4A	.
4D	4V65/V	4F# 4c	4dd
=	=	=14	=14
2D	2I/V	2G 2B	2b
4D	4I6/V	4B 4d	4g
=	=	=15	=15
2P	2IV6/V	2E 2e	2g 2cc
4P	4IV/V	4C 4c	4g 4ee
=	=	=16	=16
2D	2I64/V	2D 2d	2g 2b
4D	4V7/V	4D 4c	4f# 4a
=	=	=17	=17
2.T	2.I/V	2.G 2.B	2.g
=	=	=	=
*-	*-	*-	*-
